X: 708
P: Longways for as many as will
M: 3/2
L: 1/4
K: F
[|\
fc d(c/B/) Ad | =Be d2 c2 \
|:\
g>a g(f/e/) de | f c2 d BA |\
c A2 d cf | d g2 d e(d/c/) |\
f d2 b ag | g3 f f2 :|

